Newaita-dark/apps/16/marktext.svg

<svg height="16" viewBox="0 0 16 16" width="16" xmlns="http://www.w3.org/2000/svg" xmlns:xlink="http://www.w3.org/1999/xlink"><linearGradient id="a" gradientTransform="matrix(.0372059 0 0 .031253 -1.315168 6.719393)" gradientUnits="userSpaceOnUse" x1="254" x2="254" y1="233.5" y2="254.666672"><stop offset="0" stop-opacity=".27451"/><stop offset="1" stop-opacity="0"/></linearGradient><linearGradient id="b"><stop offset="0" stop-opacity=".313726"/><stop offset=".222222" stop-opacity=".27451"/><stop offset="1" stop-opacity="0"/></linearGradient><radialGradient id="c" cx="450.908936" cy="189.579361" gradientTransform="matrix(.00000009 -.0390662 -.0703192 -.00000005 25.238424 31.797666)" gradientUnits="userSpaceOnUse" r="21.166656" xlink:href="#b"/><radialGradient id="d" cx="450.908936" cy="189.579361" gradientTransform="matrix(-.00000009 .0390662 .0703192 .00000005 -9.361907 -3.763739)" gradientUnits="userSpaceOnUse" r="21.166656" xlink:href="#b"/><radialGradient id="e" cx="450.908936" cy="189.579361" gradientTransform="matrix(-.00000009 -.0390662 .0703192 -.00000005 -9.361907 31.797666)" gradientUnits="userSpaceOnUse" r="21.166656" xlink:href="#b"/><radialGradient id="f" cx="450.908936" cy="189.579361" gradientTransform="matrix(.00000009 .0390662 -.0703192 .00000005 25.238423 -3.76374)" gradientUnits="userSpaceOnUse" r="21.166656" xlink:href="#b"/><linearGradient id="g" gradientUnits="userSpaceOnUse" x1="7.938262" x2="7.938262" y1="14.0169665" y2="1.44805149998"><stop offset="0" stop-color="#e0e0e0"/><stop offset="1" stop-color="#eee"/></linearGradient><linearGradient id="h"><stop offset="0" stop-color="#757575"/><stop offset="1" stop-color="#616161"/></linearGradient><linearGradient id="i" gradientUnits="userSpaceOnUse" x1="12.89967575" x2="12.89967575" xlink:href="#h" y1="1.44805200003" y2="14.0169665"/><linearGradient id="j" gradientUnits="userSpaceOnUse" x1="9.2612802693" x2="9.2612802693" xlink:href="#h" y1="1.44804771658" y2="14.01693079341"/><path d="m3.804688 14.015625h8.269531v.664063h-8.269531zm0 0" fill="url(#a)"/><path d="m12.074219 14.015625h1.320312v-.660156h-1.320312zm0 0" fill="url(#c)"/><path d="m3.804688 14.015625h-1.324219v.664063h1.324219zm0 0" fill="url(#d)"/><path d="m3.804688 14.015625h-1.324219v-.660156h1.324219zm0 0" fill="url(#e)"/><path d="m12.074219 14.015625h1.320312v.664063h-1.320312zm0 0" fill="url(#f)"/><path d="m9.953125 1.449219h-6.644531c-.367188 0-.664063.292969-.664063.660156v11.246094c0 .367187.296875.660156.664063.660156h9.261718c.363282 0 .660157-.292969.660157-.660156v-8.902344zm0 0" fill="url(#g)"/><path d="m9.953125 1.449219 3.277344 3.003906v-2.34375c0-.367187-.296875-.660156-.660157-.660156zm0 0" fill="url(#i)"/><path d="m2.644531 13.191406v.164063c0 .367187.296875.660156.664063.660156h9.261718c.363282 0 .660157-.292969.660157-.660156v-.164063c0 .363282-.296875.660156-.660157.660156h-9.261718c-.367188 0-.664063-.296874-.664063-.660156zm0 0" fill-opacity=".235294"/><path d="m3.308594 1.449219c-.367188 0-.664063.292969-.664063.660156v.164063c0-.363282.296875-.660157.664063-.660157h6.644531l3.277344 3.003907v-.164063l-3.277344-3.003906zm0 0" fill="#fff" fill-opacity=".588235"/><path d="m9.953125 1.449219.179687.164062h2.4375c.363282 0 .660157.296875.660157.660157v-.164063c0-.367187-.296875-.660156-.660157-.660156zm0 0" fill="#fff" fill-opacity=".392157"/><path d="m9.953125 1.449219 3.277344 3.003906v-.277344l-2.976563-2.726562zm0 0" fill-opacity=".235294"/><path d="m1203.664647 175.258863h-803.545355c-44.405211 0-80.307296 35.42969-80.307296 79.8349v1360.027676c0 44.405211 35.902085 79.8349 80.307296 79.8349h1120.05058c43.932814 0 79.8349-35.429689 79.8349-79.8349v-1076.590161zm0 0" fill="none" stroke="#212121" stroke-linecap="round" stroke-linejoin="round" stroke-width="11.338583" transform="scale(.00826902)"/><path d="m318.469588-168.629428 104.864986 96.115821v-74.992838c0-11.748878-9.499093-21.122983-21.122983-21.122983zm0 0" fill="none" stroke="#212121" stroke-linecap="round" stroke-linejoin="round" stroke-width="3" transform="matrix(.031253 0 0 .031253 0 6.719392)"/><path d="m5.292969 5.417969c-.09375 0-.167969.074219-.167969.164062v1.984375c0 .09375.074219.167969.167969.167969h.496093v-1.492187c0-.089844.074219-.164063.164063-.164063h3.96875c.09375 0 .167969.074219.167969.164063v1.492187h.496094c.089843 0 .164062-.074219.164062-.167969v-1.984375c0-.089843-.074219-.164062-.164062-.164062zm2.148437 1.652343c-.089844 0-.164062.074219-.164062.167969v1.488281h-.828125l1.488281 1.320313 1.488281-1.320313h-.824219v-1.488281c0-.09375-.074218-.167969-.167968-.167969zm0 0" fill="url(#j)"/><path d="m5.292969 5.417969c-.09375 0-.167969.074219-.167969.164062v.164063c0-.089844.074219-.164063.167969-.164063h5.292969c.089843 0 .164062.074219.164062.164063v-.164063c0-.089843-.074219-.164062-.164062-.164062zm2.148437 1.652343c-.089844 0-.164062.074219-.164062.167969v.164063c0-.09375.074218-.164063.164062-.164063h.992188c.09375 0 .167968.070313.167968.164063v-.164063c0-.09375-.074218-.167969-.167968-.167969zm-.992187 1.65625.1875.164063h.640625v-.164063zm2.152343 0v.164063h.640626l.183593-.164063zm0 0" fill="#fff" fill-opacity=".392157"/><path d="m5.953125 6.078125c-.089844 0-.164063.074219-.164063.164063v.25c0-.089844.074219-.164063.164063-.164063h3.96875c.09375 0 .167969.074219.167969.164063v-.25c0-.089844-.074219-.164063-.167969-.164063zm-.828125 1.488281v.25c0 .089844.074219.164063.167969.164063h.496093v-.246094h-.496093c-.09375 0-.167969-.074219-.167969-.167969zm5.625 0c0 .09375-.074219.167969-.164062.167969h-.496094v.246094h.496094c.089843 0 .164062-.074219.164062-.164063zm-4.300781 1.40625 1.488281 1.324219 1.488281-1.324219h-.277343l-1.210938 1.074219-1.207031-1.074219zm0 0" fill-opacity=".235294"/><path d="m640.096388 655.213066c-11.337501 0-20.313022 8.975521-20.313022 19.840626v239.977096c0 11.337501 8.975521 20.313022 20.313022 20.313022h59.994274v-180.455218c0-10.865105 8.975521-19.840626 19.840626-19.840626h479.954192c11.3375 0 20.313022 8.975521 20.313022 19.840626v180.455218h59.994274c10.865104 0 19.840626-8.975521 19.840626-20.313022v-239.977096c0-10.865105-8.975522-19.840626-19.840626-19.840626zm259.817722 199.823448c-10.865105 0-19.840626 8.975521-19.840626 20.313022v179.982822h-100.147922l179.982822 159.6698 179.982822-159.6698h-99.675526v-179.982822c0-11.337501-8.975522-20.313022-20.313022-20.313022zm0 0" fill="none" stroke="#212121" stroke-linecap="round" stroke-linejoin="round" stroke-width="11.338583" transform="scale(.00826902)"/></svg>

<?xml version="1.0" encoding="UTF-8"?>
<svg xmlns="http://www.w3.org/2000/svg" xmlns:xlink="http://www.w3.org/1999/xlink" width="16px" height="16px" viewBox="0 0 16 16" version="1.1">
<defs>
<linearGradient id="linear0" gradientUnits="userSpaceOnUse" x1="254" y1="233.5" x2="254" y2="254.666672" gradientTransform="matrix(0.0372059,0,0,0.031253,-1.315168,6.719393)">
<stop offset="0" style="stop-color:rgb(0%,0%,0%);stop-opacity:0.27451;"/>
<stop offset="1" style="stop-color:rgb(0%,0%,0%);stop-opacity:0;"/>
</linearGradient>
<radialGradient id="radial0" gradientUnits="userSpaceOnUse" cx="450.908936" cy="189.579361" fx="450.908936" fy="189.579361" r="21.166656" gradientTransform="matrix(0.0000000870852,-0.0390662,-0.0703192,-0.0000000507693,25.238424,31.797666)">
<stop offset="0" style="stop-color:rgb(0%,0%,0%);stop-opacity:0.313726;"/>
<stop offset="0.222222" style="stop-color:rgb(0%,0%,0%);stop-opacity:0.27451;"/>
<stop offset="1" style="stop-color:rgb(0%,0%,0%);stop-opacity:0;"/>
</radialGradient>
<radialGradient id="radial1" gradientUnits="userSpaceOnUse" cx="450.908936" cy="189.579361" fx="450.908936" fy="189.579361" r="21.166656" gradientTransform="matrix(-0.0000000870852,0.0390662,0.0703192,0.0000000507693,-9.361907,-3.763739)">
<stop offset="0" style="stop-color:rgb(0%,0%,0%);stop-opacity:0.313726;"/>
<stop offset="0.222222" style="stop-color:rgb(0%,0%,0%);stop-opacity:0.27451;"/>
<stop offset="1" style="stop-color:rgb(0%,0%,0%);stop-opacity:0;"/>
</radialGradient>
<radialGradient id="radial2" gradientUnits="userSpaceOnUse" cx="450.908936" cy="189.579361" fx="450.908936" fy="189.579361" r="21.166656" gradientTransform="matrix(-0.0000000870852,-0.0390662,0.0703192,-0.0000000507693,-9.361907,31.797666)">
<stop offset="0" style="stop-color:rgb(0%,0%,0%);stop-opacity:0.313726;"/>
<stop offset="0.222222" style="stop-color:rgb(0%,0%,0%);stop-opacity:0.27451;"/>
<stop offset="1" style="stop-color:rgb(0%,0%,0%);stop-opacity:0;"/>
</radialGradient>
<radialGradient id="radial3" gradientUnits="userSpaceOnUse" cx="450.908936" cy="189.579361" fx="450.908936" fy="189.579361" r="21.166656" gradientTransform="matrix(0.0000000870852,0.0390662,-0.0703192,0.0000000507693,25.238423,-3.76374)">
<stop offset="0" style="stop-color:rgb(0%,0%,0%);stop-opacity:0.313726;"/>
<stop offset="0.222222" style="stop-color:rgb(0%,0%,0%);stop-opacity:0.27451;"/>
<stop offset="1" style="stop-color:rgb(0%,0%,0%);stop-opacity:0;"/>
</radialGradient>
<linearGradient id="linear1" gradientUnits="userSpaceOnUse" x1="254" y1="233.5" x2="254" y2="-168.666672" gradientTransform="matrix(0.031253,0,0,0.031253,0,6.719391)">
<stop offset="0" style="stop-color:rgb(87.843138%,87.843138%,87.843138%);stop-opacity:1;"/>
<stop offset="1" style="stop-color:rgb(93.333334%,93.333334%,93.333334%);stop-opacity:1;"/>
</linearGradient>
<linearGradient id="linear2" gradientUnits="userSpaceOnUse" x1="412.75" y1="-168.666656" x2="412.75" y2="233.5" gradientTransform="matrix(0.031253,0,0,0.031253,0,6.719391)">
<stop offset="0" style="stop-color:rgb(45.882353%,45.882353%,45.882353%);stop-opacity:1;"/>
<stop offset="1" style="stop-color:rgb(38.039216%,38.039216%,38.039216%);stop-opacity:1;"/>
</linearGradient>
<linearGradient id="linear3" gradientUnits="userSpaceOnUse" x1="4787.480469" y1="1625.639771" x2="4787.480469" y2="7370.521973" gradientTransform="matrix(0.00218784,0,0,0.00218784,-1.212961,-2.108592)">
<stop offset="0" style="stop-color:rgb(45.882353%,45.882353%,45.882353%);stop-opacity:1;"/>
<stop offset="1" style="stop-color:rgb(38.039216%,38.039216%,38.039216%);stop-opacity:1;"/>
</linearGradient>
</defs>
<g id="surface1">
<path style=" stroke:none;fill-rule:nonzero;fill:url(#linear0);" d="M 3.804688 14.015625 L 12.074219 14.015625 L 12.074219 14.679688 L 3.804688 14.679688 Z M 3.804688 14.015625 "/>
<path style=" stroke:none;fill-rule:nonzero;fill:url(#radial0);" d="M 12.074219 14.015625 L 13.394531 14.015625 L 13.394531 13.355469 L 12.074219 13.355469 Z M 12.074219 14.015625 "/>
<path style=" stroke:none;fill-rule:nonzero;fill:url(#radial1);" d="M 3.804688 14.015625 L 2.480469 14.015625 L 2.480469 14.679688 L 3.804688 14.679688 Z M 3.804688 14.015625 "/>
<path style=" stroke:none;fill-rule:nonzero;fill:url(#radial2);" d="M 3.804688 14.015625 L 2.480469 14.015625 L 2.480469 13.355469 L 3.804688 13.355469 Z M 3.804688 14.015625 "/>
<path style=" stroke:none;fill-rule:nonzero;fill:url(#radial3);" d="M 12.074219 14.015625 L 13.394531 14.015625 L 13.394531 14.679688 L 12.074219 14.679688 Z M 12.074219 14.015625 "/>
<path style=" stroke:none;fill-rule:nonzero;fill:url(#linear1);" d="M 9.953125 1.449219 L 3.308594 1.449219 C 2.941406 1.449219 2.644531 1.742188 2.644531 2.109375 L 2.644531 13.355469 C 2.644531 13.722656 2.941406 14.015625 3.308594 14.015625 L 12.570312 14.015625 C 12.933594 14.015625 13.230469 13.722656 13.230469 13.355469 L 13.230469 4.453125 Z M 9.953125 1.449219 "/>
<path style=" stroke:none;fill-rule:nonzero;fill:url(#linear2);" d="M 9.953125 1.449219 L 13.230469 4.453125 L 13.230469 2.109375 C 13.230469 1.742188 12.933594 1.449219 12.570312 1.449219 Z M 9.953125 1.449219 "/>
<path style=" stroke:none;fill-rule:nonzero;fill:rgb(0%,0%,0%);fill-opacity:0.235294;" d="M 2.644531 13.191406 L 2.644531 13.355469 C 2.644531 13.722656 2.941406 14.015625 3.308594 14.015625 L 12.570312 14.015625 C 12.933594 14.015625 13.230469 13.722656 13.230469 13.355469 L 13.230469 13.191406 C 13.230469 13.554688 12.933594 13.851562 12.570312 13.851562 L 3.308594 13.851562 C 2.941406 13.851562 2.644531 13.554688 2.644531 13.191406 Z M 2.644531 13.191406 "/>
<path style=" stroke:none;fill-rule:nonzero;fill:rgb(100%,100%,100%);fill-opacity:0.588235;" d="M 3.308594 1.449219 C 2.941406 1.449219 2.644531 1.742188 2.644531 2.109375 L 2.644531 2.273438 C 2.644531 1.910156 2.941406 1.613281 3.308594 1.613281 L 9.953125 1.613281 L 13.230469 4.617188 L 13.230469 4.453125 L 9.953125 1.449219 Z M 3.308594 1.449219 "/>
<path style=" stroke:none;fill-rule:nonzero;fill:rgb(100%,100%,100%);fill-opacity:0.392157;" d="M 9.953125 1.449219 L 10.132812 1.613281 L 12.570312 1.613281 C 12.933594 1.613281 13.230469 1.910156 13.230469 2.273438 L 13.230469 2.109375 C 13.230469 1.742188 12.933594 1.449219 12.570312 1.449219 Z M 9.953125 1.449219 "/>
<path style=" stroke:none;fill-rule:nonzero;fill:rgb(0%,0%,0%);fill-opacity:0.235294;" d="M 9.953125 1.449219 L 13.230469 4.453125 L 13.230469 4.175781 L 10.253906 1.449219 Z M 9.953125 1.449219 "/>
<path style="fill:none;stroke-width:11.338583;stroke-linecap:round;stroke-linejoin:round;stroke:rgb(12.941177%,12.941177%,12.941177%);stroke-opacity:1;stroke-miterlimit:4;" d="M 1203.664647 175.258863 L 400.119292 175.258863 C 355.714081 175.258863 319.811996 210.688553 319.811996 255.093763 L 319.811996 1615.121439 C 319.811996 1659.52665 355.714081 1694.956339 400.119292 1694.956339 L 1520.169872 1694.956339 C 1564.102686 1694.956339 1600.004772 1659.52665 1600.004772 1615.121439 L 1600.004772 538.531278 Z M 1203.664647 175.258863 " transform="matrix(0.00826902,0,0,0.00826902,0,0)"/>
<path style="fill:none;stroke-width:3;stroke-linecap:round;stroke-linejoin:round;stroke:rgb(12.941177%,12.941177%,12.941177%);stroke-opacity:1;stroke-miterlimit:4;" d="M 318.469588 -168.629428 L 423.334574 -72.513607 L 423.334574 -147.506445 C 423.334574 -159.255323 413.835481 -168.629428 402.211591 -168.629428 Z M 318.469588 -168.629428 " transform="matrix(0.031253,0,0,0.031253,0,6.719392)"/>
<path style=" stroke:none;fill-rule:nonzero;fill:url(#linear3);" d="M 5.292969 5.417969 C 5.199219 5.417969 5.125 5.492188 5.125 5.582031 L 5.125 7.566406 C 5.125 7.660156 5.199219 7.734375 5.292969 7.734375 L 5.789062 7.734375 L 5.789062 6.242188 C 5.789062 6.152344 5.863281 6.078125 5.953125 6.078125 L 9.921875 6.078125 C 10.015625 6.078125 10.089844 6.152344 10.089844 6.242188 L 10.089844 7.734375 L 10.585938 7.734375 C 10.675781 7.734375 10.75 7.660156 10.75 7.566406 L 10.75 5.582031 C 10.75 5.492188 10.675781 5.417969 10.585938 5.417969 Z M 7.441406 7.070312 C 7.351562 7.070312 7.277344 7.144531 7.277344 7.238281 L 7.277344 8.726562 L 6.449219 8.726562 L 7.9375 10.046875 L 9.425781 8.726562 L 8.601562 8.726562 L 8.601562 7.238281 C 8.601562 7.144531 8.527344 7.070312 8.433594 7.070312 Z M 7.441406 7.070312 "/>
<path style=" stroke:none;fill-rule:nonzero;fill:rgb(100%,100%,100%);fill-opacity:0.392157;" d="M 5.292969 5.417969 C 5.199219 5.417969 5.125 5.492188 5.125 5.582031 L 5.125 5.746094 C 5.125 5.65625 5.199219 5.582031 5.292969 5.582031 L 10.585938 5.582031 C 10.675781 5.582031 10.75 5.65625 10.75 5.746094 L 10.75 5.582031 C 10.75 5.492188 10.675781 5.417969 10.585938 5.417969 Z M 7.441406 7.070312 C 7.351562 7.070312 7.277344 7.144531 7.277344 7.238281 L 7.277344 7.402344 C 7.277344 7.308594 7.351562 7.238281 7.441406 7.238281 L 8.433594 7.238281 C 8.527344 7.238281 8.601562 7.308594 8.601562 7.402344 L 8.601562 7.238281 C 8.601562 7.144531 8.527344 7.070312 8.433594 7.070312 Z M 6.449219 8.726562 L 6.636719 8.890625 L 7.277344 8.890625 L 7.277344 8.726562 Z M 8.601562 8.726562 L 8.601562 8.890625 L 9.242188 8.890625 L 9.425781 8.726562 Z M 8.601562 8.726562 "/>
<path style=" stroke:none;fill-rule:nonzero;fill:rgb(0%,0%,0%);fill-opacity:0.235294;" d="M 5.953125 6.078125 C 5.863281 6.078125 5.789062 6.152344 5.789062 6.242188 L 5.789062 6.492188 C 5.789062 6.402344 5.863281 6.328125 5.953125 6.328125 L 9.921875 6.328125 C 10.015625 6.328125 10.089844 6.402344 10.089844 6.492188 L 10.089844 6.242188 C 10.089844 6.152344 10.015625 6.078125 9.921875 6.078125 Z M 5.125 7.566406 L 5.125 7.816406 C 5.125 7.90625 5.199219 7.980469 5.292969 7.980469 L 5.789062 7.980469 L 5.789062 7.734375 L 5.292969 7.734375 C 5.199219 7.734375 5.125 7.660156 5.125 7.566406 Z M 10.75 7.566406 C 10.75 7.660156 10.675781 7.734375 10.585938 7.734375 L 10.089844 7.734375 L 10.089844 7.980469 L 10.585938 7.980469 C 10.675781 7.980469 10.75 7.90625 10.75 7.816406 Z M 6.449219 8.972656 L 7.9375 10.296875 L 9.425781 8.972656 L 9.148438 8.972656 L 7.9375 10.046875 L 6.730469 8.972656 Z M 6.449219 8.972656 "/>
<path style="fill:none;stroke-width:11.338583;stroke-linecap:round;stroke-linejoin:round;stroke:rgb(12.941177%,12.941177%,12.941177%);stroke-opacity:1;stroke-miterlimit:4;" d="M 640.096388 655.213066 C 628.758887 655.213066 619.783366 664.188587 619.783366 675.053692 L 619.783366 915.030788 C 619.783366 926.368289 628.758887 935.34381 640.096388 935.34381 L 700.090662 935.34381 L 700.090662 754.888592 C 700.090662 744.023487 709.066183 735.047966 719.931288 735.047966 L 1199.88548 735.047966 C 1211.22298 735.047966 1220.198502 744.023487 1220.198502 754.888592 L 1220.198502 935.34381 L 1280.192776 935.34381 C 1291.05788 935.34381 1300.033402 926.368289 1300.033402 915.030788 L 1300.033402 675.053692 C 1300.033402 664.188587 1291.05788 655.213066 1280.192776 655.213066 Z M 899.91411 855.036514 C 889.049005 855.036514 880.073484 864.012035 880.073484 875.349536 L 880.073484 1055.332358 L 779.925562 1055.332358 L 959.908384 1215.002158 L 1139.891206 1055.332358 L 1040.21568 1055.332358 L 1040.21568 875.349536 C 1040.21568 864.012035 1031.240158 855.036514 1019.902658 855.036514 Z M 899.91411 855.036514 " transform="matrix(0.00826902,0,0,0.00826902,0,-0.0000000894155)"/>
</g>
</svg>
